dist/img/cart.svg

<svg width="20" height="18" viewBox="0 0 20 18" fill="none" xmlns="http://www.w3.org/2000/svg">
<path d="M19.0035 4.81175C18.9192 4.6899 18.8066 4.59031 18.6754 4.5215C18.5441 4.45269 18.3982 4.41672 18.25 4.41667H5.72193L4.66409 1.8775C4.52539 1.54312 4.29052 1.25746 3.98927 1.05673C3.68801 0.856001 3.33393 0.749247 2.97193 0.750004H0.833344V2.58334H2.97193L7.32059 13.0196C7.39025 13.1866 7.50775 13.3292 7.65831 13.4295C7.80887 13.5298 7.98575 13.5834 8.16668 13.5833H15.5C15.8823 13.5833 16.2242 13.3459 16.3589 12.9893L19.1089 5.656C19.1609 5.51724 19.1785 5.36794 19.1601 5.22091C19.1417 5.07387 19.088 4.93348 19.0035 4.81175ZM14.8648 11.75H8.77809L6.48643 6.25H16.9273L14.8648 11.75Z" fill="white"/>
<path d="M8.625 17.25C9.38439 17.25 10 16.6344 10 15.875C10 15.1156 9.38439 14.5 8.625 14.5C7.86561 14.5 7.25 15.1156 7.25 15.875C7.25 16.6344 7.86561 17.25 8.625 17.25Z" fill="white"/>
<path d="M15.0417 17.25C15.801 17.25 16.4167 16.6344 16.4167 15.875C16.4167 15.1156 15.801 14.5 15.0417 14.5C14.2823 14.5 13.6667 15.1156 13.6667 15.875C13.6667 16.6344 14.2823 17.25 15.0417 17.25Z" fill="white"/>
</svg>

<svg width="20" height="18" fill="none" xmlns="http://www.w3.org/2000/svg"><path d="M19.003 4.812a.917.917 0 00-.753-.395H5.722l-1.058-2.54A1.828 1.828 0 002.972.75H.833v1.833h2.139L7.32 13.02a.916.916 0 00.846.563H15.5a.919.919 0 00.859-.594l2.75-7.333a.916.916 0 00-.106-.844zm-4.138 6.938H8.778l-2.292-5.5h10.441l-2.062 5.5zm-6.24 5.5a1.375 1.375 0 100-2.75 1.375 1.375 0 000 2.75zm6.417 0a1.375 1.375 0 100-2.75 1.375 1.375 0 000 2.75z" fill="#fff"/></svg>
